;FLAVOR:Marlin
;TIME:5300
;Filament used: 4.31033m
;Layer height: 0.3
;MINX:76.303
;MINY:94.064
;MINZ:0.3
;MAXX:139.799
;MAXY:125.933
;MAXZ:48
;TARGET_MACHINE.NAME:Anet A8
;Generated with Cura_SteamEngine 5.7.0
M140 S60
M105
M190 S60
M104 S200
M105
M109 S200
M82 ;absolute extrusion mode
G28 ;Home
G1 Z15.0 F2000 ;Move the platform
G92 E0
G92 E0
G1 F1500 E-6.5
;LAYER_COUNT:160
;LAYER:0
M107
M204 S1000
G0 F7500 X78.999 Y98.297 Z0.3
;TYPE:SKIRT
G1 F1500 E0
G1 X80.882 Y96.914 E0.11656
G1 X82.088 Y96.229 E0.18576
G1 X83.856 Y95.74 E0.27727
G1 X84.735 Y95.596 E0.32171
G1 X109.322 Y94.077 E1.5507
G1 X110.19 Y94.064 E1.59401
G1 X110.93 Y94.09 E1.63095
G1 X111.792 Y94.138 E1.67402
G1 X112.515 Y94.201 E1.71023
G1 X113.379 Y94.307 E1.75366
G1 X114.249 Y94.453 E1.79767
G1 X115.22 Y94.661 E1.84721
G1 X115.955 Y94.847 E1.88504
G1 X116.983 Y95.147 E1.93846
G1 X117.974 Y95.489 E1.99077
G1 X118.965 Y95.885 E2.04401
G1 X119.672 Y96.2 E2.08262
G1 X120.442 Y96.574 E2.12533
G1 X120.958 Y96.848 E2.15448
G1 X121.874 Y97.377 E2.20725
G1 X122.52 Y97.786 E2.2454
G1 X123.1 Y98.177 E2.28029
G1 X123.869 Y98.736 E2.32773
G1 X124.392 Y99.15 E2.361
G1 X124.948 Y99.616 E2.3972
G1 X125.512 Y100.121 E2.43497
G1 X126.016 Y100.6 E2.46966
G1 X126.66 Y101.265 E2.51584
G1 X127.136 Y101.788 E2.55112
G1 X127.567 Y102.292 E2.58421
G1 X128.063 Y102.91 E2.62374
G1 X128.626 Y103.674 E2.67109
G1 X129.212 Y104.546 E2.7235
G1 X130.398 Y106.485 E2.8369
G1 X130.952 Y108.871 E2.95911
G1 X130.998 Y111.301 E3.08036
G1 X130.221 Y113.766 E3.20931
G1 X129.44 Y115.096 E3.28625
G1 X128.746 Y116.161 E3.34967
G1 X128.345 Y116.722 E3.38408
G1 X127.696 Y117.56 E3.43696
G1 X126.928 Y118.447 E3.49549
G1 X126.387 Y119.024 E3.53495
G1 X125.457 Y119.93 E3.59973
G1 X124.774 Y120.536 E3.64528
G1 X123.955 Y121.201 E3.69791
G1 X122.952 Y121.931 E3.7598
G1 X122.136 Y122.465 E3.80846
G1 X120.752 Y123.265 E3.88821
G1 X119.889 Y123.702 E3.93647
G1 X118.864 Y124.156 E3.9924
G1 X118.143 Y124.449 E4.03123
G1 X117.364 Y124.728 E4.07251
G1 X116.242 Y125.074 E4.13109
G1 X115.461 Y125.281 E4.1714
G1 X114.562 Y125.48 E4.21733
G1 X113.797 Y125.619 E4.25613
G1 X113.006 Y125.738 E4.29603
G1 X112.428 Y125.805 E4.32506
G1 X111.418 Y125.898 E4.37566
G1 X110.27 Y125.933 E4.43297
G1 X109.18 Y125.91 E4.48736
G1 X107.858 Y125.839 E4.55341
G1 X84.217 Y124.388 E5.73508
G1 X81.91 Y123.75 E5.8545
G1 X79.653 Y122.269 E5.98918
G1 X78.17 Y120.692 E6.09718
G1 X76.748 Y118.23 E6.23902
G1 X76.413 Y116.329 E6.33533
G1 X76.303 Y114.881 E6.40778
G1 X76.322 Y104.515 E6.92494
G1 X76.439 Y103.164 E6.99259
G1 X77.28 Y100.588 E7.12779
G1 X78.999 Y98.297 E7.27068
G0 F7500 X79.284 Y98.584
G1 F1500 X81.08 Y97.262 E7.38194
G1 X82.242 Y96.602 E7.44861
G1 X83.963 Y96.126 E7.5377
G1 X84.799 Y95.991 E7.57994
G1 X109.328 Y94.477 E8.80603
G1 X110.176 Y94.464 E8.84834
G1 X110.908 Y94.489 E8.88488
G1 X111.757 Y94.536 E8.9273
G1 X112.467 Y94.598 E8.96286
G1 X113.313 Y94.701 E9.00538
G1 X114.165 Y94.844 E9.04848
G1 X115.122 Y95.049 E9.09731
G1 X115.843 Y95.231 E9.13441
G1 X116.853 Y95.525 E9.18689
G1 X117.826 Y95.86 E9.23823
G1 X118.802 Y96.25 E9.29067
G1 X119.497 Y96.56 E9.32863
G1 X120.255 Y96.928 E9.37067
G1 X120.758 Y97.194 E9.39906
G1 X121.66 Y97.715 E9.45103
G1 X122.297 Y98.118 E9.48863
G1 X122.865 Y98.5 E9.52278
G1 X123.621 Y99.05 E9.56942
G1 X124.135 Y99.456 E9.6021
G1 X124.681 Y99.914 E9.63766
G1 X125.236 Y100.411 E9.67483
G1 X125.74 Y100.89 E9.70951
G1 X126.364 Y101.535 E9.75429
G1 X126.832 Y102.048 E9.78893
G1 X127.255 Y102.543 E9.82142
G1 X127.741 Y103.148 E9.86013
G1 X128.294 Y103.897 E9.90658
G1 X128.871 Y104.755 E9.95817
G1 X130.023 Y106.638 E10.0683
G1 X130.553 Y108.921 E10.18522
G1 X130.597 Y111.245 E10.30119
G1 X129.855 Y113.599 E10.42433
G1 X129.095 Y114.893 E10.4992
G1 X128.42 Y115.929 E10.56089
G1 X128.029 Y116.477 E10.59447
G1 X127.393 Y117.298 E10.64628
G1 X126.636 Y118.173 E10.70401
G1 X126.095 Y118.75 E10.74347
G1 X125.191 Y119.631 E10.80644
G1 X124.522 Y120.225 E10.85108
G1 X123.703 Y120.89 E10.90371
G1 X122.733 Y121.596 E10.96357
G1 X121.917 Y122.13 E11.01222
G1 X120.571 Y122.908 E11.08978
G1 X119.727 Y123.336 E11.13699
G1 X118.713 Y123.785 E11.19232
G1 X117.992 Y124.078 E11.23115
G1 X117.246 Y124.346 E11.2707
G1 X116.139 Y124.687 E11.32848
G1 X115.375 Y124.89 E11.36792
G1 X114.49 Y125.086 E11.41315
G1 X113.725 Y125.225 E11.45194
G1 X112.96 Y125.341 E11.49054
G1 X112.391 Y125.407 E11.51912
G1 X111.406 Y125.498 E11.56847
G1 X110.278 Y125.533 E11.62477
G1 X109.202 Y125.511 E11.67846
G1 X107.883 Y125.44 E11.74436
G1 X84.287 Y123.992 E12.92379
G1 X82.074 Y123.38 E13.03834
G1 X79.913 Y121.962 E13.16729
G1 X78.493 Y120.452 E13.2707
G1 X77.13 Y118.093 E13.40663
G1 X76.812 Y116.298 E13.49757
G1 X76.703 Y114.882 E13.56843
G1 X76.721 Y104.549 E14.08394
G1 X76.834 Y103.241 E14.14944
G1 X77.639 Y100.776 E14.27881
G1 X79.284 Y98.584 E14.41554
G0 F7500 X79.569 Y98.871
G1 F1500 X81.278 Y97.61 E14.5215
G1 X82.399 Y96.973 E14.58583
G1 X84.027 Y96.521 E14.67012
G1 X84.863 Y96.386 E14.71237
G1 X109.334 Y94.877 E15.93555
G1 X110.163 Y94.864 E15.97692
G1 X110.886 Y94.888 E16.01301
G1 X111.722 Y94.934 E16.05478
G1 X112.419 Y94.995 E16.08969
G1 X113.247 Y95.095 E16.13129
G1 X114.081 Y95.235 E16.17349
G1 X115.024 Y95.437 E16.2216
G1 X115.731 Y95.615 E16.25797
G1 X116.723 Y95.903 E16.30951
G1 X117.678 Y96.231 E16.35988
G1 X118.639 Y96.615 E16.41151
G1 X119.323 Y96.92 E16.44888
G1 X120.068 Y97.281 E16.49018
G1 X120.558 Y97.541 E16.51785
G1 X121.446 Y98.053 E16.56899
G1 X122.074 Y98.45 E16.60606
G1 X122.63 Y98.824 E16.63949
G1 X123.373 Y99.364 E16.68531
G1 X123.878 Y99.762 E16.71739
G1 X124.414 Y100.212 E16.75231
G1 X124.96 Y100.701 E16.78888
G1 X125.464 Y101.18 E16.82357
G1 X126.069 Y101.805 E16.86696
G1 X126.528 Y102.308 E16.90094
G1 X126.943 Y102.793 E16.93278
G1 X127.419 Y103.386 E16.97072
G1 X127.962 Y104.121 E17.01631
G1 X128.53 Y104.964 E17.06702
G1 X129.648 Y106.791 E17.17388
G1 X130.154 Y108.971 E17.28554
G1 X130.196 Y111.189 E17.39621
G1 X129.489 Y113.432 E17.51354
G1 X128.75 Y114.69 E17.58633
G1 X128.094 Y115.697 E17.64629
G1 X127.713 Y116.232 E17.67906
G1 X127.091 Y117.036 E17.72977
G1 X126.344 Y117.899 E17.78672
G1 X125.803 Y118.476 E17.82618
G1 X124.926 Y119.332 E17.88732
G1 X124.27 Y119.914 E17.93107
G1 X123.451 Y120.579 E17.98371
G1 X122.514 Y121.261 E18.04152
G1 X121.698 Y121.795 E18.09018
G1 X120.39 Y122.551 E18.16555
G1 X119.565 Y122.97 E18.21171
G1 X118.562 Y123.415 E18.26646
G1 X117.857 Y123.702 E18.30443
G1 X117.128 Y123.964 E18.34308
G1 X116.036 Y124.3 E18.40008
G1 X115.289 Y124.499 E18.43865
G1 X114.404 Y124.695 E18.48387
G1 X113.665 Y124.83 E18.52135
G1 X112.914 Y124.944 E18.55925
G1 X112.354 Y125.009 E18.58737
G1 X111.393 Y125.098 E18.63552
G1 X110.286 Y125.133 E18.69078
G1 X109.224 Y125.112 E18.74377
G1 X107.907 Y125.041 E18.80957
G1 X84.357 Y123.596 E19.9867
G1 X82.238 Y123.01 E20.09638
G1 X80.173 Y121.655 E20.2196
G1 X78.816 Y120.212 E20.31843
G1 X77.512 Y117.955 E20.44847
G1 X77.211 Y116.267 E20.53402
G1 X77.103 Y114.883 E20.60327
G1 X77.12 Y104.583 E21.11714
G1 X77.229 Y103.318 E21.18049
G1 X77.998 Y100.964 E21.30404
G1 X79.569 Y98.871 E21.4346
G0 F7500 X79.853 Y99.159
G1 F1500 X81.476 Y97.958 E21.53533
G1 X82.557 Y97.344 E21.59736
G1 X84.091 Y96.916 E21.67681
G1 X84.927 Y96.781 E21.71906
G1 X109.34 Y95.277 E22.93934
G1 X110.15 Y95.264 E22.97975
G1 X110.864 Y95.287 E23.01539
G1 X111.687 Y95.332 E23.05651
G1 X112.371 Y95.392 E23.09077
G1 X113.181 Y95.49 E23.13148
G1 X113.997 Y95.626 E23.17275
G1 X114.927 Y95.825 E23.2202
G1 X115.62 Y95.999 E23.25584
G1 X116.593 Y96.281 E23.30638
G1 X117.53 Y96.602 E23.3558
G1 X118.476 Y96.98 E23.40662
G1 X119.149 Y97.28 E23.44338
G1 X119.88 Y97.634 E23.4839
G1 X120.358 Y97.888 E23.51091
G1 X121.232 Y98.391 E23.56122
G1 X121.851 Y98.782 E23.59775
G1 X122.395 Y99.148 E23.63046
G1 X123.125 Y99.678 E23.67546
G1 X123.621 Y100.069 E23.70697
G1 X124.147 Y100.51 E23.74122
G1 X124.684 Y100.991 E23.77719
G1 X125.188 Y101.47 E23.81188
G1 X125.774 Y102.075 E23.8539
G1 X126.224 Y102.568 E23.8872
G1 X126.631 Y103.044 E23.91844
G1 X127.097 Y103.624 E23.95556
G1 X127.63 Y104.345 E24.00029
G1 X128.189 Y105.173 E24.05014
G1 X129.273 Y106.944 E24.15373
G1 X129.755 Y109.021 E24.2601
G1 X129.795 Y111.133 E24.36549
G1 X129.123 Y113.265 E24.47702
G1 X128.405 Y114.487 E24.54773
G1 X127.768 Y115.465 E24.60596
G1 X127.397 Y115.987 E24.63791
G1 X126.788 Y116.774 E24.68755
G1 X126.052 Y117.625 E24.74369
G1 X125.511 Y118.202 E24.78315
G1 X124.66 Y119.033 E24.84249
G1 X124.018 Y119.603 E24.88532
G1 X123.199 Y120.268 E24.93795
G1 X122.295 Y120.926 E24.99374
G1 X121.479 Y121.46 E25.04239
G1 X120.209 Y122.194 E25.11557
G1 X119.403 Y122.604 E25.16069
G1 X118.411 Y123.045 E25.21485
G1 X117.722 Y123.326 E25.25197
G1 X117.01 Y123.582 E25.28972
G1 X115.933 Y123.913 E25.34593
G1 X115.186 Y124.112 E25.3845
G1 X114.332 Y124.302 E25.42815
G1 X113.605 Y124.435 E25.46502
G1 X112.868 Y124.547 E25.50221
G1 X112.317 Y124.611 E25.52988
G1 X111.38 Y124.698 E25.57683
G1 X110.294 Y124.733 E25.63104
G1 X109.246 Y124.713 E25.68334
G1 X107.931 Y124.642 E25.74904
G1 X84.427 Y123.2 E26.92386
G1 X82.402 Y122.64 E27.02868
G1 X80.433 Y121.348 E27.14617
G1 X79.139 Y119.972 E27.24041
G1 X77.894 Y117.818 E27.36453
G1 X77.61 Y116.235 E27.44477
G1 X77.503 Y114.884 E27.51238
G1 X77.52 Y104.584 E28.02625
G1 X77.623 Y103.399 E28.08559
G1 X78.357 Y101.152 E28.20353
G1 X79.853 Y99.159 E28.32785
G0 F7500 X80.137 Y99.447
G1 F1500 X81.714 Y98.28 E28.42573
G1 X82.712 Y97.716 E28.48292
G1 X84.155 Y97.311 E28.5577
G1 X84.991 Y97.176 E28.59994
G1 X109.347 Y95.677 E29.81737
G1 X110.138 Y95.664 E29.85684
G1 X110.842 Y95.686 E29.89198
G1 X111.652 Y95.73 E29.93245
G1 X112.323 Y95.789 E29.96605
G1 X113.116 Y95.885 E30.0059
G1 X113.913 Y96.017 E30.04621
G1 X114.83 Y96.213 E30.09299
G1 X115.509 Y96.383 E30.12791
G1 X116.464 Y96.659 E30.17751
G1 X117.382 Y96.973 E30.22591
G1 X118.313 Y97.345 E30.27593
G1 X118.975 Y97.64 E30.31209
G1 X119.692 Y97.987 E30.35183
G1 X120.158 Y98.235 E30.37816
G1 X121.032 Y98.738 E30.42847
G1 X121.628 Y99.114 E30.46363
G1 X122.16 Y99.472 E30.49562
G1 X122.89 Y100.002 E30.54063
G1 X123.364 Y100.375 E30.57072
G1 X123.88 Y100.808 E30.60433
G1 X124.408 Y101.281 E30.63969
G1 X124.912 Y101.76 E30.67438
G1 X125.479 Y102.345 E30.71503
G1 X125.92 Y102.828 E30.74766
G1 X126.319 Y103.295 E30.7783
G1 X126.775 Y103.862 E30.8146
G1 X127.308 Y104.583 E30.85934
G1 X127.848 Y105.382 E30.90745
G1 X128.897 Y107.096 E31.0077
G1 X129.356 Y109.072 E31.10891
G1 X129.394 Y111.077 E31.20896
G1 X128.757 Y113.098 E31.31468
G1 X128.06 Y114.284 E31.38331
G1 X127.442 Y115.233 E31.43981
G1 X127.08 Y115.742 E31.47097
G1 X126.485 Y116.512 E31.51952
G1 X125.749 Y117.363 E31.57565
G1 X125.232 Y117.916 E31.61342
G1 X124.394 Y118.734 E31.67184
G1 X123.766 Y119.292 E31.71376
G1 X122.947 Y119.957 E31.76639
G1 X122.076 Y120.591 E31.82014
G1 X121.26 Y121.125 E31.86879
G1 X120.028 Y121.837 E31.93978
G1 X119.222 Y122.247 E31.9849
G1 X118.26 Y122.675 E32.03743
G1 X117.586 Y122.95 E32.07374
G1 X116.892 Y123.2 E32.11054
G1 X115.83 Y123.527 E32.16598
G1 X115.099 Y123.722 E32.20373
G1 X114.26 Y123.909 E32.24661
G1 X113.545 Y124.04 E32.28288
G1 X112.822 Y124.15 E32.31936
G1 X112.28 Y124.213 E32.34659
G1 X111.367 Y124.298 E32.39233
G1 X110.301 Y124.333 E32.44554
G1 X109.268 Y124.314 E32.49709
G1 X107.955 Y124.243 E32.56269
G1 X84.497 Y122.804 E33.73522
G1 X82.566 Y122.27 E33.83517
G1 X80.693 Y121.041 E33.94693
G1 X79.462 Y119.732 E34.03658
G1 X78.276 Y117.68 E34.15483
G1 X78.004 Y116.164 E34.23167
G1 X77.903 Y114.885 E34.29568
G1 X77.919 Y104.619 E34.80785
G1 X78.018 Y103.476 E34.86509
G1 X78.716 Y101.34 E34.9772
G1 X80.137 Y99.447 E35.09529
G0 F7500 X80.421 Y99.735
G1 F1500 X81.952 Y98.602 E35.19031
G1 X82.867 Y98.088 E35.24267
G1 X84.219 Y97.706 E35.31276
G1 X85.055 Y97.571 E35.35501
G1 X109.354 Y96.077 E36.56958
G1 X110.126 Y96.064 E36.6081
G1 X110.82 Y96.085 E36.64274
G1 X111.617 Y96.128 E36.68256
G1 X112.275 Y96.186 E36.71552
G1 X113.051 Y96.28 E36.75452
G1 X113.829 Y96.408 E36.79385
G1 X114.733 Y96.601 E36.83997
G1 X115.398 Y96.767 E36.87416
G1 X116.334 Y97.037 E36.92277
G1 X117.234 Y97.345 E36.97022
G1 X118.15 Y97.71 E37.01942
G1 X118.801 Y98 E37.05497
G1 X119.504 Y98.34 E37.09393
G1 X119.958 Y98.582 E37.1196
G1 X120.832 Y99.085 E37.16991
G1 X121.405 Y99.446 E37.2037
G1 X121.925 Y99.796 E37.23497
G1 X122.655 Y100.326 E37.27997
G1 X123.107 Y100.682 E37.30868
G1 X123.613 Y101.106 E37.34161
G1 X124.132 Y101.571 E37.37638
G1 X124.636 Y102.05 E37.41107
G1 X125.184 Y102.615 E37.45034
G1 X125.616 Y103.087 E37.48226
G1 X126.007 Y103.546 E37.51234
G1 X126.453 Y104.1 E37.54783
G1 X126.986 Y104.821 E37.59256
G1 X127.507 Y105.591 E37.63894
G1 X128.522 Y107.249 E37.73593
G1 X128.957 Y109.122 E37.83186
G1 X128.993 Y111.021 E37.92662
G1 X128.39 Y112.933 E38.02664
G1 X127.725 Y114.066 E38.09218
G1 X127.116 Y115.001 E38.14785
G1 X126.763 Y115.497 E38.17822
G1 X126.168 Y116.267 E38.22677
G1 X125.457 Y117.09 E38.28103
G1 X124.952 Y117.63 E38.31792
G1 X124.128 Y118.435 E38.37539
G1 X123.514 Y118.981 E38.41638
G1 X122.695 Y119.646 E38.46902
G1 X121.857 Y120.256 E38.52073
G1 X121.041 Y120.79 E38.56938
G1 X119.847 Y121.48 E38.63818
G1 X119.041 Y121.89 E38.6833
G1 X118.109 Y122.305 E38.73419
G1 X117.45 Y122.574 E38.76971
G1 X116.774 Y122.818 E38.80556
G1 X115.727 Y123.141 E38.86022
G1 X115.012 Y123.332 E38.89715
G1 X114.188 Y123.516 E38.93927
G1 X113.485 Y123.645 E38.97493
G1 X112.776 Y123.753 E39.01071
G1 X112.243 Y123.815 E39.03748
G1 X111.354 Y123.898 E39.08202
G1 X110.308 Y123.933 E39.13424
G1 X109.29 Y123.915 E39.18503
G1 X107.979 Y123.844 E39.25054
G1 X84.567 Y122.408 E40.42076
G1 X82.73 Y121.9 E40.51585
G1 X80.953 Y120.734 E40.62189
G1 X79.785 Y119.492 E40.70694
G1 X78.658 Y117.542 E40.81931
G1 X78.398 Y116.093 E40.89276
G1 X78.303 Y114.886 E40.95316
G1 X78.318 Y104.653 E41.46369
G1 X78.413 Y103.553 E41.51877
G1 X79.075 Y101.528 E41.62506
G1 X80.421 Y99.735 E41.73691
G0 F7500 X80.707 Y100.021
G1 F1500 X82.148 Y98.951 E41.82646
G1 X83.021 Y98.461 E41.8764
G1 X84.283 Y98.101 E41.94188
G1 X85.119 Y97.966 E41.98412
G1 X109.361 Y96.477 E43.19584
G1 X110.114 Y96.464 E43.23341
G1 X110.798 Y96.484 E43.26755
G1 X111.582 Y96.527 E43.30673
G1 X112.227 Y96.583 E43.33903
G1 X112.986 Y96.675 E43.37717
G1 X113.764 Y96.803 E43.41651
G1 X114.636 Y96.989 E43.46099
G1 X115.287 Y97.151 E43.49446
G1 X116.205 Y97.416 E43.54213
G1 X117.086 Y97.717 E43.58858
G1 X117.987 Y98.075 E43.63695
G1 X118.627 Y98.36 E43.6719
G1 X119.316 Y98.693 E43.71008
G1 X119.759 Y98.929 E43.73512
G1 X120.619 Y99.423 E43.7846
G1 X121.182 Y99.778 E43.8178
G1 X121.69 Y100.12 E43.84836
G1 X122.407 Y100.64 E43.89255
G1 X122.85 Y100.989 E43.92068
G1 X123.346 Y101.404 E43.95295
G1 X123.857 Y101.861 E43.98715
G1 X124.349 Y102.328 E44.02099
G1 X124.889 Y102.885 E44.0597
G1 X125.311 Y103.346 E44.09088
G1 X125.695 Y103.797 E44.12043
G1 X126.141 Y104.351 E44.15591
G1 X126.655 Y105.045 E44.199
G1 X127.166 Y105.8 E44.24448
G1 X128.147 Y107.402 E44.3382
G1 X128.558 Y109.172 E44.42885
G1 X128.592 Y110.965 E44.51832
G1 X128.024 Y112.766 E44.61254
G1 X127.38 Y113.863 E44.676
G1 X126.79 Y114.769 E44.72994
G1 X126.446 Y115.252 E44.75952
G1 X125.851 Y116.022 E44.80807
G1 X125.165 Y116.817 E44.86046
G1 X124.673 Y117.344 E44.89643
G1 X123.862 Y118.136 E44.95298
G1 X123.262 Y118.67 E44.99306
G1 X122.443 Y119.335 E45.04569
G1 X121.638 Y119.921 E45.09537
G1 X120.822 Y120.455 E45.14402
G1 X119.666 Y121.123 E45.21063
G1 X118.86 Y121.533 E45.25574
G1 X117.958 Y121.935 E45.30501
G1 X117.314 Y122.198 E45.33972
G1 X116.656 Y122.436 E45.37463
G1 X115.624 Y122.755 E45.42852
G1 X114.925 Y122.942 E45.46462
G1 X114.116 Y123.123 E45.50597
G1 X113.425 Y123.25 E45.54103
G1 X112.73 Y123.356 E45.5761
G1 X112.206 Y123.417 E45.60242
G1 X111.34 Y123.498 E45.64581
G1 X110.315 Y123.533 E45.69698
G1 X109.312 Y123.516 E45.74703
G1 X108.003 Y123.445 E45.81243
G1 X84.637 Y122.012 E46.98035
G1 X82.894 Y121.53 E47.07058
G1 X81.213 Y120.427 E47.17088
G1 X80.108 Y119.252 E47.25136
G1 X79.04 Y117.404 E47.35784
G1 X78.792 Y116.022 E47.42789
